resources/haticons/SVG/hangout.svg

<!-- Generated by IcoMoon.io -->
<svg version="1.1" xmlns="http://www.w3.org/2000/svg" width="24" height="24" viewBox="0 0 24 24">
<title>hangout</title>
<path d="M22.5 10.275v0.45c-0.375 8.4-10.5 13.275-10.5 13.275v-3.75c-5.775 0-10.5-4.5-10.5-10.125s4.725-10.125 10.5-10.125c5.7 0 10.35 4.35 10.5 9.825v0.45zM10.5 7.5h-4.5v4.5h3v2.25s1.5 0 1.5-2.25v-4.5zM18 7.5h-4.5v4.5h3v2.25s1.5 0 1.5-2.25v-4.5z"></path>
</svg>

<svg xmlns="http://www.w3.org/2000/svg" width="24" height="24"><path d="M22.5 10.275v.45C22.125 19.125 12 24 12 24v-3.75c-5.775 0-10.5-4.5-10.5-10.125S6.225 0 12 0c5.7 0 10.35 4.35 10.5 9.825v.45zM10.5 7.5H6V12h3v2.25s1.5 0 1.5-2.25V7.5zm7.5 0h-4.5V12h3v2.25s1.5 0 1.5-2.25V7.5z"/></svg>
